urcenter/urcenter/img/tariffs/arrow.svg

<svg width="15" height="16" viewBox="0 0 15 16" fill="none" xmlns="http://www.w3.org/2000/svg">
<g clip-path="url(#clip0)">
<path d="M7.37875 2.45858L8.63652 0.992676L14.2255 6.59623C14.9956 7.36831 14.9929 8.64935 14.2199 9.4234L8.64342 15.0075L7.38647 13.5408L12.9127 8.00698L7.37875 2.45858Z" fill="#2741D0"/>
<path d="M1.04904e-05 6.99854H12.9474V8.99795H1.04904e-05V6.99854Z" fill="#2741D0"/>
</g>
<defs>
<clipPath id="clip0">
<rect width="14.8014" height="16" fill="white" transform="matrix(-1 0 0 1 14.8014 0)"/>
</clipPath>
</defs>
</svg>

<svg width="15" height="16" fill="none" xmlns="http://www.w3.org/2000/svg"><g clip-path="url(#clip0)" fill="#2741D0"><path d="M7.379 2.459L8.637.993l5.588 5.603c.77.772.768 2.053-.005 2.827l-5.577 5.585-1.257-1.467 5.527-5.534-5.534-5.548z"/><path d="M0 6.999h12.947v1.999H0v-2z"/></g><defs><clipPath id="clip0"><path fill="#fff" transform="matrix(-1 0 0 1 14.801 0)" d="M0 0h14.801v16H0z"/></clipPath></defs></svg>
